tape-drive.svg

<svg fill="currentColor" viewBox="0 0 24 24"><path d="M12 10a2 2 0 0 1 2 2c0 1.11-.89 2-2 2a2 2 0 1 1 0-4M5 3h14a2 2 0 0 1 2 2v12h-4.1a6.96 6.96 0 0 0 2.1-5c0-3.87-3.13-7-7-7s-7 3.13-7 7 3.13 7 7 7h9c0 1.11-.89 2-2 2H5a2 2 0 0 1-2-2V5c0-1.1.9-2 2-2"/></svg>

<svg  viewBox="0 0 24 24" fill="currentColor"><path  d="M12 10C13.11 10 14 10.9 14 12C14 13.11 13.11 14 12 14C10.9 14 10 13.11 10 12C10 10.9 10.9 10 12 10M5 3H19C20.11 3 21 3.9 21 5V17H16.9C18.2 15.73 19 13.96 19 12C19 8.13 15.87 5 12 5C8.13 5 5 8.13 5 12C5 15.87 8.13 19 12 19H21C21 20.11 20.11 21 19 21H5C3.9 21 3 20.11 3 19V5C3 3.9 3.9 3 5 3Z"/></svg>
